X: 1
T:Gale Warning
R:reel
C:Tony Upton, 3/20/98
M:2/2
L:1/8
Q:1/4=240
K:Dm
GDGB GDGB|G2DG cABG|DA,DF DA,DF|D2A,D A2GD|
GDGB GDGB|G2DG cABG|DA,DF DA,DF|F2EC D4:|
BGB,G BGB,G|d2BA G2D2|FDF,D FDF,D|cBAG F2D2|
BGB,G BGB,G|dcBA G2D2|FDF,D FDF,D|F2EC D4:|
% Output from ABC2Win  Version 2.1 h on 13/02/2002
